X: 1
T:J'ai dix sous dans ma poche - Tour
C:Y. Dour 4
M:4/4
L:1/8
K:C
E|AAAA (3ABA GA|B2c2B3:|\
A|d2c2(3BcB AA|d2c2B4|:E2 AB c3c|\
d2c2 (3BcB AB|c2B2A4:|
